X: 336
T: Jolly Seven
R: reel
Z: 2006 John Chambers <jc:trillian.mit.edu>
S: handwritten MS of unknown origin
M: C|
L: 1/8
K: D
c \
|  "D"d2fd adfd |  "D"d2fd   "A"ecAc \
|  "D"d2fd adfd | "E7"b^gaf "A7"ecAc |
|  "D"d2fd adfd |  "D"d2fd   "A"ecAc \
| "Bm"dcBA Bcde | "F#m"fbfe "Bm"dBB |]
c \
| "Bm"dfBf dfBf | "Bm"dfBf "A"ecAc \
| "Bm"dfBf dfBf | "E7"b^gaf "A7"ecAc |
| "Bm"dfBf dfBf | "Bm"dfBf "A"ecAc \
| "Bm"dcBA Bcde | "F#m"fbfe "Bm"dBB |]

%%sep 1 1 500

